Numix-GalliumOS/22/panel/autokey-status-dark.svg

<?xml version="1.0" encoding="UTF-8" standalone="no"?>
<!-- Generator: Adobe Illustrator 15.1.0, SVG Export Plug-In . SVG Version: 6.00 Build 0)  -->

<svg
   xmlns:dc="http://purl.org/dc/elements/1.1/"
   xmlns:cc="http://creativecommons.org/ns#"
   xmlns:rdf="http://www.w3.org/1999/02/22-rdf-syntax-ns#"
   xmlns:svg="http://www.w3.org/2000/svg"
   xmlns="http://www.w3.org/2000/svg"
   xmlns:sodipodi="http://sodipodi.sourceforge.net/DTD/sodipodi-0.dtd"
   xmlns:inkscape="http://www.inkscape.org/namespaces/inkscape"
   version="1.1"
   id="svg2408"
   x="0px"
   y="0px"
   width="22"
   height="22"
   viewBox="0 0 22 22"
   enable-background="new 0 0 96 96"
   xml:space="preserve"
   inkscape:version="0.91 r"
   sodipodi:docname="autokey-status-dark.svg"><metadata
     id="metadata106"><rdf:RDF><cc:Work
         rdf:about=""><dc:format>image/svg+xml</dc:format><dc:type
           rdf:resource="http://purl.org/dc/dcmitype/StillImage" /><dc:title /></cc:Work></rdf:RDF></metadata><defs
     id="defs104" /><sodipodi:namedview
     pagecolor="#ffffff"
     bordercolor="#666666"
     borderopacity="1"
     objecttolerance="10"
     gridtolerance="10"
     guidetolerance="10"
     inkscape:pageopacity="0"
     inkscape:pageshadow="2"
     inkscape:window-width="1920"
     inkscape:window-height="1056"
     id="namedview102"
     showgrid="true"
     inkscape:zoom="25.916666"
     inkscape:cx="13.769427"
     inkscape:cy="6.4796214"
     inkscape:window-x="0"
     inkscape:window-y="24"
     inkscape:window-maximized="1"
     inkscape:current-layer="svg2408"><inkscape:grid
       type="xygrid"
       id="grid4313" /></sodipodi:namedview><filter
     id="filter3794"
     x="-0.192"
     width="1.3839999"
     y="-0.192"
     height="1.3839999"
     style="color-interpolation-filters:sRGB"><feGaussianBlur
       id="feGaussianBlur3796"
       stdDeviation="5.28" /></filter><filter
     id="filter3218"
     style="color-interpolation-filters:sRGB"><feGaussianBlur
       id="feGaussianBlur3220"
       stdDeviation="1.71" /></filter><g
     id="layer2"
     display="none"
     style="display:none"
     transform="translate(0,-74)"><g
       id="rect3745"
       display="inline"
       enable-background="new    "
       style="display:inline;opacity:0.9;filter:url(#filter3218)"><linearGradient
         id="SVGID_1_"
         gradientUnits="userSpaceOnUse"
         x1="37.867699"
         y1="-22.7129"
         x2="37.867699"
         y2="62.785599"
         gradientTransform="matrix(1.0059,0,0,-0.9942,9.9104,143.4184)"><stop
           offset="0"
           style="stop-color:#000000"
           id="stop10" /><stop
           offset="1"
           style="stop-color:#000000;stop-opacity:0.5882"
           id="stop12" /></linearGradient><path
         d="m 12,7 72,0 c 3.866,0 7,3.134 7,7 l 0,71 c 0,3.866 -3.134,7 -7,7 L 12,92 C 8.134,92 5,88.866 5,85 L 5,14 C 5,10.134 8.134,7 12,7 Z"
         id="path14"
         inkscape:connector-curvature="0"
         style="fill:url(#SVGID_1_)" /></g></g><path
     style="fill:#353535;fill-opacity:1;stroke:none;stroke-width:0.5;stroke-miterlimit:10"
     d="M 11.669922 2 L 3 20 L 6.0625 20 L 7.9160156 16 L 14.699219 16 L 15.380859 20 L 19 20 L 15.685547 2 L 11.669922 2 z M 12.916016 5.1523438 L 14.308594 13 L 9.2578125 13 L 12.916016 5.1523438 z "
     id="path100-7" /></svg>

<!-- Generator: Adobe Illustrator 15.1.0, SVG Export Plug-In . SVG Version: 6.00 Build 0)  -->
<svg xmlns="http://www.w3.org/2000/svg" viewBox="0 0 22 22" style="enable-background:new 0 0 96 96">
 <path d="m 11.67 2 l -8.67 18 l 3.063 0 l 1.854 -4 l 6.783 0 l 0.682 4 l 3.619 0 l -3.314 -18 l -4.02 0 z m 1.246 3.152 l 1.393 7.848 l -5.05 0 l 3.658 -7.848 z" style="fill:#353535;fill-opacity:1;stroke:none"/>
</svg>
